src/icons/stylelint.svg

<svg width="16" height="16" viewBox="0 0 16 16" fill="none" xmlns="http://www.w3.org/2000/svg">
<path fill-rule="evenodd" clip-rule="evenodd" d="M8.08507 13.922C9.39507 9.24701 9.35707 9.22501 10.3041 5.89201L10.5311 6.02301C10.6551 6.09501 10.7561 6.03601 10.7561 5.89401V4.30401C11.0071 3.42601 11.2041 2.74801 11.2621 2.54401H12.2871L13.9911 4.11901L12.8721 5.08401L13.7181 5.99801L8.14207 13.921C8.11507 13.966 8.07707 13.956 8.08507 13.921" fill="#6B7394"/>
<path fill-rule="evenodd" clip-rule="evenodd" d="M10.395 2.94301L8.87905 3.81701C8.89756 3.8434 8.90767 3.87477 8.90805 3.90701V4.72201C8.90672 4.76534 8.89205 4.80234 8.86405 4.83301L10.394 5.71601C10.499 5.77601 10.584 5.72601 10.584 5.60601V3.05301C10.584 2.93301 10.499 2.88301 10.394 2.94301M7.10205 4.72301V3.90801C7.10272 3.87468 7.11238 3.84434 7.13105 3.81701L5.61505 2.94301C5.51105 2.88301 5.42505 2.93301 5.42505 3.05301V5.60601C5.42505 5.72601 5.51105 5.77601 5.61505 5.71601L7.14505 4.83301C7.11803 4.80266 7.10278 4.76364 7.10205 4.72301ZM8.69405 3.84501C8.74405 3.84501 8.78505 3.87301 8.78505 3.90701V4.72201C8.78505 4.75701 8.74405 4.78501 8.69405 4.78501H7.31705C7.26705 4.78501 7.22505 4.75701 7.22505 4.72201V3.90701C7.22505 3.87301 7.26605 3.84501 7.31705 3.84501H8.69405Z" fill="#FC8289"/>
<path fill-rule="evenodd" clip-rule="evenodd" d="M7.86611 13.922H7.92211C6.61311 9.24701 6.65111 9.22501 5.70411 5.89201L5.47611 6.02301C5.35311 6.09501 5.25211 6.03601 5.25211 5.89401V4.30401L4.74611 2.54401H3.72011L2.01611 4.11801L3.13611 5.08301L2.28911 5.99701L7.86611 13.922Z" fill="#6B7394"/>
<path fill-rule="evenodd" clip-rule="evenodd" d="M7.96206 6.48601C8.07173 6.48614 8.17696 6.44271 8.2546 6.36525C8.33224 6.2878 8.37593 6.18268 8.37606 6.07301C8.37619 5.96334 8.33276 5.85812 8.2553 5.78048C8.17785 5.70284 8.07273 5.65914 7.96306 5.65901C7.85339 5.65901 7.74822 5.70258 7.67067 5.78012C7.59313 5.85767 7.54956 5.96285 7.54956 6.07251C7.54956 6.18218 7.59313 6.28735 7.67067 6.3649C7.74822 6.44245 7.85239 6.48601 7.96206 6.48601ZM7.96206 8.94001C8.0163 8.94008 8.07001 8.92946 8.12015 8.90877C8.17028 8.88807 8.21585 8.8577 8.25424 8.8194C8.29264 8.7811 8.32312 8.7356 8.34393 8.68552C8.36475 8.63544 8.37549 8.58175 8.37556 8.52751C8.37563 8.47328 8.36501 8.41956 8.34431 8.36943C8.32362 8.31929 8.29325 8.27373 8.25495 8.23533C8.21664 8.19693 8.17115 8.16646 8.12107 8.14564C8.07099 8.12482 8.0173 8.11408 7.96306 8.11401C7.85339 8.11401 7.74822 8.15758 7.67067 8.23512C7.59313 8.31267 7.54956 8.41785 7.54956 8.52751C7.54956 8.63718 7.59313 8.74235 7.67067 8.8199C7.74822 8.89745 7.85339 8.94101 7.96306 8.94101M7.96206 11.396C8.0163 11.3961 8.07001 11.3855 8.12015 11.3648C8.17028 11.3441 8.21585 11.3137 8.25424 11.2754C8.29264 11.2371 8.32312 11.1916 8.34393 11.1415C8.36475 11.0914 8.37549 11.0377 8.37556 10.9835C8.37563 10.9293 8.36501 10.8756 8.34431 10.8254C8.32362 10.7753 8.29325 10.7297 8.25495 10.6913C8.21664 10.6529 8.17115 10.6225 8.12107 10.6016C8.07099 10.5808 8.0173 10.5701 7.96306 10.57C7.85353 10.57 7.74848 10.6135 7.67103 10.691C7.59357 10.7684 7.55006 10.8735 7.55006 10.983C7.55006 11.0925 7.59357 11.1976 7.67103 11.275C7.74848 11.3525 7.85253 11.396 7.96206 11.396Z" fill="#8E95B4"/>
</svg>

<svg xmlns="http://www.w3.org/2000/svg" width="16" height="16" fill="none"><g fill-rule="evenodd" clip-rule="evenodd"><path fill="#6B7394" d="M8.085 13.922c1.31-4.675 1.272-4.697 2.219-8.03l.227.131c.124.072.225.013.225-.129v-1.59c.251-.878.448-1.556.506-1.76h1.025l1.704 1.575-1.119.965.846.914-5.576 7.923c-.027.045-.065.035-.057 0"/><path fill="#FC8289" d="m10.395 2.943-1.516.874a.16.16 0 0 1 .029.09v.815q-.002.065-.044.111l1.53.883c.105.06.19.01.19-.11V3.053c0-.12-.085-.17-.19-.11m-3.292 1.78v-.815q.001-.05.029-.091l-1.516-.874c-.104-.06-.19-.01-.19.11v2.553c0 .12.086.17.19.11l1.53-.883a.17.17 0 0 1-.043-.11m1.592-.878c.05 0 .091.028.091.062v.815c0 .035-.041.063-.091.063H7.317c-.05 0-.092-.028-.092-.063v-.815c0-.034.041-.062.092-.062z"/><path fill="#6B7394" d="M7.866 13.922h.056c-1.309-4.675-1.271-4.697-2.218-8.03l-.228.131c-.123.072-.224.013-.224-.129v-1.59l-.506-1.76H3.72L2.016 4.118l1.12.965-.847.914z"/><path fill="#8E95B4" d="M7.962 6.486a.413.413 0 1 0 .001-.827.413.413 0 0 0 0 .827M7.962 8.94a.413.413 0 1 0 .001-.826.413.413 0 0 0 0 .827M7.962 11.396a.413.413 0 1 0 .001-.826.413.413 0 0 0 0 .826"/></g></svg>
